!!!OTL: "Faschingslied" RAU RAU ROMMELSDOEPPEN
!!!ARE: Europa, Mitteleuropa, Deutschland, Niederrhein
!!!SCT: Z1276
!!!YEM: Copyright 1995, estate of Helmut Schaffrath.
**kern
*ICvox
*Ivox
*M2/4
*k[f#c#g#]
*A:
{8a
8g#
8a
8g#
=1
8a
8e
8e
8e}
=2
{8a
8g#
8a
8g#
=3
8a
8e
8e
8e}
=4
{8f#
8g#
4a
=5
8f#
8g#
4a}
=6
{8ccn
8b
8a
8g#
=7
8e
8g#
4a}
=8
{8f#
8g#
4a
=9
8f#
8g#
4a}
=10
{8ccn
8b
8a
8ccn
=11
8b
8g#
4a}
==
!!!AGN: Natur und Welt, Brauchtums - Lied, Fastnahct
!!!ONB: ESAC (Essen Associative Code) Database: ZUCCAL
!!!AMT: simple duple
!!!AIN: vox
!!!EED: Helmut Schaffrath
!!!EEV: 1.0
*-
